img/icon/ios.svg

<svg width="20" height="24" viewBox="0 0 20 24" fill="none" xmlns="http://www.w3.org/2000/svg">
<path d="M17.7316 15.6352C17.0711 14.6876 16.741 13.6201 16.741 12.4335C16.741 11.3519 17.0525 10.361 17.6742 9.46136C18.0092 8.97321 18.5549 8.40862 19.3111 7.76719C18.8134 7.15478 18.3157 6.67619 17.8177 6.33151C16.918 5.70944 15.8985 5.39841 14.7595 5.39841C14.0801 5.39841 13.252 5.56104 12.2759 5.88671C11.3378 6.21213 10.6533 6.37501 10.2228 6.37501C9.89716 6.37501 9.23682 6.23154 8.24136 5.94424C7.23635 5.65704 6.38919 5.51357 5.70004 5.51357C4.0537 5.51357 2.6945 6.20282 1.62251 7.58103C0.540902 8.97854 0 10.7684 0 12.9508C0 15.2672 0.703686 17.6743 2.11065 20.1726C3.53673 22.6517 4.97734 23.8914 6.43224 23.8914C6.92039 23.8914 7.55216 23.7286 8.32736 23.4032C9.1028 23.0876 9.78235 22.9294 10.3663 22.9294C10.9883 22.9294 11.7111 23.0825 12.5342 23.3887C13.4051 23.6947 14.0753 23.8479 14.5443 23.8479C15.7694 23.8479 16.9995 22.9098 18.2341 21.0338C19.038 19.8374 19.6267 18.641 20 17.4444C19.1481 17.1858 18.3921 16.5828 17.7316 15.6352Z" fill="#162F71"/>
<path d="M12.8497 4.53697C13.4529 3.93396 13.898 3.27342 14.1852 2.55566C14.4626 1.83779 14.6011 1.18681 14.6011 0.602857C14.6011 0.564688 14.5991 0.516764 14.5939 0.459284C14.5896 0.401855 14.587 0.354131 14.587 0.315811C14.5774 0.287046 14.5655 0.234394 14.5512 0.157906C14.5369 0.0814169 14.525 0.028765 14.5152 0C12.8306 0.392652 11.6342 1.10091 10.9258 2.12514C10.2081 3.15892 9.83465 4.38877 9.80589 5.81495C10.4472 5.75747 10.9447 5.67625 11.2991 5.5709C11.8163 5.39856 12.3326 5.05383 12.8497 4.53697Z" fill="#162F71"/>
</svg>

<svg width="20" height="24" fill="none" xmlns="http://www.w3.org/2000/svg"><path d="M17.732 15.635c-.66-.947-.991-2.015-.991-3.201 0-1.082.311-2.073.933-2.973.335-.488.88-1.052 1.637-1.694-.498-.612-.995-1.09-1.493-1.435-.9-.623-1.92-.934-3.059-.934-.679 0-1.507.163-2.483.489-.938.325-1.623.488-2.053.488-.326 0-.986-.143-1.982-.43-1.005-.288-1.852-.431-2.541-.431-1.646 0-3.006.689-4.077 2.067C.54 8.979 0 10.768 0 12.951c0 2.316.704 4.723 2.11 7.222 1.427 2.479 2.867 3.718 4.322 3.718.488 0 1.12-.162 1.895-.488.776-.315 1.455-.474 2.04-.474.621 0 1.344.154 2.167.46.871.306 1.541.459 2.01.459 1.225 0 2.456-.938 3.69-2.814.804-1.197 1.393-2.393 1.766-3.59-.852-.258-1.608-.861-2.268-1.809z" fill="#162F71"/><path d="M12.85 4.537c.603-.603 1.048-1.264 1.335-1.981.278-.718.416-1.37.416-1.953 0-.038-.002-.086-.007-.144a2.016 2.016 0 0 1-.007-.143 1.394 1.394 0 0 1-.036-.158A1.339 1.339 0 0 0 14.515 0c-1.684.393-2.88 1.1-3.59 2.125-.717 1.034-1.09 2.264-1.12 3.69.642-.058 1.14-.139 1.494-.244.517-.172 1.034-.517 1.55-1.034z" fill="#162F71"/></svg>
